src/assets/duotone/SecuritySafe.svg

<svg width="24" height="24" viewBox="0 0 24 24"  xmlns="http://www.w3.org/2000/svg">
<path opacity="0.4" d="M20.9099 11.1198C20.9099 16.0098 17.3599 20.5898 12.5099 21.9298C12.1799 22.0198 11.8198 22.0198 11.4898 21.9298C6.63984 20.5898 3.08984 16.0098 3.08984 11.1198V6.72982C3.08984 5.90982 3.70986 4.97982 4.47986 4.66982L10.0498 2.38982C11.2998 1.87982 12.7098 1.87982 13.9598 2.38982L19.5298 4.66982C20.2898 4.97982 20.9199 5.90982 20.9199 6.72982L20.9099 11.1198Z" />
<path d="M14.5 10.5C14.5 9.12 13.38 8 12 8C10.62 8 9.5 9.12 9.5 10.5C9.5 11.62 10.24 12.55 11.25 12.87V15.5C11.25 15.91 11.59 16.25 12 16.25C12.41 16.25 12.75 15.91 12.75 15.5V12.87C13.76 12.55 14.5 11.62 14.5 10.5Z" />
</svg>

<?xml version="1.0" encoding="UTF-8"?>
<svg width="24" height="24" viewBox="0 0 24 24" xmlns="http://www.w3.org/2000/svg">
 <path d="m20.91 11.12c0 4.89-3.55 9.47-8.4 10.81-0.33 0.09-0.6901 0.09-1.0201 0-4.85-1.34-8.4-5.92-8.4-10.81v-4.39c0-0.82 0.62002-1.75 1.39-2.06l5.5699-2.28c1.25-0.51 2.66-0.51 3.91 0l5.57 2.28c0.76 0.31 1.3901 1.24 1.3901 2.06l-0.01 4.39z" opacity=".4"/>
 <path d="m14.5 10.5c0-1.38-1.12-2.5-2.5-2.5s-2.5 1.12-2.5 2.5c0 1.12 0.74 2.05 1.75 2.37v2.63c0 0.41 0.34 0.75 0.75 0.75s0.75-0.34 0.75-0.75v-2.63c1.01-0.32 1.75-1.25 1.75-2.37z"/>
</svg>
